X:1
T:Time of the Season
C:Zombies
Z:All Rights Reserved
L:1/8
M:4/4
K:G
V:1 treble nm="[Alto Saxophone]"
%%MIDI program 65
V:1
"_5""_7""Em" z2 .Bzz2"Bm7"z.B, |"_5""_7""Em" z2 .Bzz2"Bm7"z.B, |"_5""_7""Em" z2 .Bzz2"Bm7"z.B, | %3
w: |||
"_5""_7""Em" z2 .BzzB"Bm7" de- |"Em" e/d/ezzzB GA- | A G3 z4 |"C" z2 EE G A2A- | A"Em" B2>z2B de- | %8
w: * It's the time|_ _ _ of the sea-|_ son,|when your love runs high|_ _ In this time|
 e/d/e z2 BBAG | A G3 z4 |"C" z2 E2 G A2B- |"Em" B2 d2 e e2d- |"G" d2zB BAGA |"Em" B2 E2 G A2B- | %14
w: _ _ _ give it to me|ea- sy,|And let me try|_ with pleasur'd hands *|* to take you in the|sun, To promised * lands|
"G" B2zB BAGA |"Em" A2 G2 E F2G- |"C" G4 E2 F2 |"G/B" G2 F2 E2 F2 |"Am7" G4"E" ^G4- | ^G8 |: %20
w: _ to show you ev'ery _|one. _ It' the Time|_ of the|sea- _ son for|lov- ing.|_|
"_5""_7""Em" z2 .Bzz2"Bm7"z.B, |"_5""_7""Em" z2 .Bzz2"Bm7"z.B, |"_5""_7""Em" z2 .Bzz2"Bm7"z.B, | %23
w: |||
"_5""_7""Em" z2 .BzzB"Bm7" de- |"Em" e/d/ez4BG | A G3 z4 |"C" z2 EE G A2A- |"Em" A B2>z2B de- | %28
w: * What's your name?|_ _ _ Who's your|dad- dy?|Is he rich like me|_ _ Has he tak-|
 e/d/ez4BA | A G3 z4 |"C" z2 E2 G2 A2 |"Em" B2 d2 e e2d- |"G" d2 z2 BAGA |"Em" B2 E2 G A2B- | %34
w: en _ _ an- y|time _|to show you|what you need to live?|_ Tell it to me|slow- ly, tell you why,|
"G" B2zB BAGA |"Em" A2 G2 E F2G- |"C" G4 E2 F2 |"G/B" G2 F2 E2 F2 |"Am7" G4"E" ^G4- | ^G8 :| %40
w: _ I real- ly want to|know, _ It's the Time|_ of the|sea- _ son for|lov- ing.|_|
"_5""_7""Em" z2 .Bzz2"Bm7"z.B, |"_5""_7""Em" z2 .Bzz2"Bm7"z"^Repeat and Fade".B, |] %42
w: ||

